React/src/assets/images/frontend/ngrx.svg

<svg width="130" height="130" viewBox="0 0 130 130" fill="none" xmlns="http://www.w3.org/2000/svg">
<path fill-rule="evenodd" clip-rule="evenodd" d="M65.1252 1.43005L5.72 22.0506L14.2245 100.862L65.1252 128.589V1.43005Z" fill="#412846"/>
<path fill-rule="evenodd" clip-rule="evenodd" d="M64.87 1.43005L124.275 22.0506L115.771 100.862L64.87 128.589V1.43005Z" fill="#4B314F"/>
<path fill-rule="evenodd" clip-rule="evenodd" d="M94.6072 44.9427L94.5966 44.909C97.3091 47.928 98.7023 51.5127 98.7763 55.6633C98.8504 59.8139 97.4571 64.1922 94.5645 68.7849C96.7264 67.1043 99.223 63.4766 102.046 57.9438C103.266 69.1567 98.7345 77.6737 88.41 83.5067C91.7063 83.2027 96.0828 81.0325 101.511 76.9885C95.7184 90.9341 85.0679 98.292 69.5593 99.0622C54.5713 99.0581 44.8618 90.0512 44.8694 90.0569C38.7074 85.2611 34.4677 79.2164 32.1647 71.9501C28.4793 67.9253 28.4425 67.4937 28.0624 65.8854C27.6822 64.2772 28.3025 63.8279 29.3821 62.2542C30.1018 61.2051 30.2714 59.6959 29.9017 57.7536C28.9842 56.4812 28.4558 54.4884 28.3166 51.7752C28.3166 50.464 29.1916 49.0806 30.9418 47.6249C32.6919 46.1693 33.7656 45.0498 34.1546 44.279C34.4513 43.8588 34.5659 42.037 34.4985 38.8138C34.4804 35.6479 36.2382 33.9255 39.7719 33.6465C45.0724 33.2281 48.0618 29.2416 49.7271 27.4287C50.8373 26.22 52.4804 25.6326 54.5528 25.6213C57.4704 25.4845 60.125 26.6029 62.4119 28.9109C68.1078 28.6163 73.9423 30.1524 79.8541 33.4802C88.2552 38.4707 92.8402 43.8751 93.6089 49.6662C92.7084 57.2875 82.4706 57.0882 62.9405 49.0666C52.7203 51.9616 47.6958 58.2349 47.8627 67.8866C47.8557 76.7432 52.1422 83.179 60.6928 87.1874C56.5252 83.0958 54.7504 79.6568 55.3481 76.8088C64.0164 87.0744 73.8903 90.9114 84.9526 88.3204C80.0754 88.4907 76.2123 86.9214 73.3048 83.5889C80.7821 83.4072 87.8407 79.9361 94.4877 73.1405C90.6507 76.1938 86.6356 77.35 82.3845 76.6228C93.8983 67.5707 97.9725 57.0107 94.6072 44.9427ZM73.71 43.5501C74.6434 43.5501 75.4 42.7935 75.4 41.8601C75.4 40.9267 74.6434 40.1701 73.71 40.1701C72.7766 40.1701 72.02 40.9267 72.02 41.8601C72.02 42.7935 72.7766 43.5501 73.71 43.5501Z" fill="#BA2BD2"/>
</svg>

<svg width="130" height="130" fill="none" xmlns="http://www.w3.org/2000/svg"><path fill-rule="evenodd" clip-rule="evenodd" d="M65.125 1.43L5.72 22.05l8.505 78.812 50.9 27.727V1.43z" fill="#412846"/><path fill-rule="evenodd" clip-rule="evenodd" d="M64.87 1.43l59.405 20.62-8.504 78.812-50.901 27.727V1.43z" fill="#4B314F"/><path fill-rule="evenodd" clip-rule="evenodd" d="M94.607 44.943l-.01-.034c2.712 3.019 4.105 6.604 4.18 10.754.073 4.15-1.32 8.53-4.213 13.122 2.162-1.68 4.659-5.308 7.482-10.841 1.22 11.213-3.312 19.73-13.636 25.563 3.296-.304 7.673-2.475 13.101-6.519-5.793 13.946-16.443 21.304-31.952 22.074-14.988-.004-24.697-9.01-24.69-9.005-6.162-4.796-10.401-10.84-12.704-18.107-3.686-4.025-3.723-4.456-4.103-6.065-.38-1.608.24-2.057 1.32-3.63.72-1.05.89-2.56.52-4.501-.918-1.273-1.446-3.266-1.585-5.979 0-1.311.875-2.694 2.625-4.15 1.75-1.456 2.824-2.575 3.213-3.346.296-.42.41-2.242.343-5.465-.018-3.166 1.74-4.889 5.274-5.167 5.3-.419 8.29-4.405 9.955-6.218 1.11-1.209 2.753-1.796 4.826-1.808 2.917-.136 5.572.982 7.859 3.29 5.696-.295 11.53 1.241 17.442 4.57 8.401 4.99 12.986 10.394 13.755 16.185-.9 7.622-11.138 7.422-30.668-.6-10.22 2.896-15.245 9.169-15.078 18.82-.007 8.857 4.28 15.293 12.83 19.301-4.168-4.091-5.943-7.53-5.345-10.378C64.016 87.074 73.89 90.91 84.953 88.32c-4.878.17-8.74-1.399-11.648-4.731 7.477-.182 14.536-3.653 21.183-10.448-3.837 3.053-7.852 4.209-12.103 3.482 11.513-9.052 15.587-19.612 12.222-31.68zM73.71 43.55a1.69 1.69 0 100-3.38 1.69 1.69 0 000 3.38z" fill="#BA2BD2"/></svg>
